cellular/assets/icons/svg/digg.svg

<svg xmlns="http://www.w3.org/2000/svg" width="32" height="32" viewBox="0 0 32 32">
    <path fill="#fff" d="M28.833 16.62h-2.333v10.463h-4.083v-5.833h-1.75v5.833h-4.667v-10.5h-3.536l.036-5.882h16.333z"/>
    <path fill="#2A5F91" d="M13.667 9.583v-.167s-3.334-3.333-5.835-3.333c-2.498 0-5.832 3.333-5.832 3.333v8.334h4.667v3.522c-1.944.115-3.5 1.627-3.5 3.478v2.625c0 .481.42.875.934.875h7.465c.514 0 .935-.394.935-.875v-2.625c0-1.851-1.557-3.362-3.5-3.478v-3.522h4.667v-.036h1.166v10.536h12.834v-10.536h2.332v-8.131h-16.333zm15.166 7.037h-2.333v10.463h-4.083v-5.833h-1.75v5.833h-4.667v-10.5h-2.333v-5.882h15.166v5.919zM16 3.75v10.5h10.5v-10.5h-10.5zm9.333 9.333h-8.166v-8.166h8.166v8.166z"/>
    <path fill="#fff" d="M17.167 4.917h8.166v8.166h-8.166zM11.319 27.23h-7v-2.333c0-1.286 1.151-2.333 2.566-2.333h1.868c1.415 0 2.565 1.047 2.565 2.333v2.333zM12.485 16.613h-9.333v-6.668c1.241-1.146 3.336-2.665 4.665-2.665 1.332 0 3.427 1.519 4.667 2.665v6.668z"/>
</svg>

<?xml version="1.0" encoding="utf-8"?>
<!-- Generator: Adobe Illustrator 14.0.0, SVG Export Plug-In . SVG Version: 6.00 Build 43363)  -->
<!DOCTYPE svg PUBLIC "-//W3C//DTD SVG 1.1//EN" "http://www.w3.org/Graphics/SVG/1.1/DTD/svg11.dtd">
<svg version="1.1" id="Layer_1" xmlns="http://www.w3.org/2000/svg" xmlns:xlink="http://www.w3.org/1999/xlink" x="0px" y="0px"
	 width="32px" height="32px" viewBox="0 0 32 32" enable-background="new 0 0 32 32" xml:space="preserve">
<path fill="#FFFFFF" d="M28.833,16.62H26.5v10.463h-4.083V21.25h-1.75v5.833H16v-10.5h-3.536L12.5,10.7h16.333V16.62z"/>
<path fill="#2A5F91" d="M13.667,9.583V9.416c0,0-3.334-3.333-5.835-3.333C5.334,6.083,2,9.416,2,9.416v8.334h4.667v3.521
	c-1.944,0.115-3.5,1.627-3.5,3.479v2.625c0,0.48,0.42,0.875,0.934,0.875h7.47c0.515,0,0.936-0.395,0.936-0.875V24.75
	c0-1.85-1.556-3.362-3.5-3.479V17.75h4.668v-0.036h1.167V28.25h12.83V17.714H30v-8.13L13.667,9.583L13.667,9.583z M28.833,16.62
	H26.5v10.463h-4.083V21.25h-1.75v5.833H16v-10.5h-2.333V10.7h15.166V16.62z M16,3.75v10.5h10.5V3.75H16z M25.333,13.083h-8.166
	V4.917h8.166V13.083z"/>
<path fill="#FFFFFF" d="M17.167,4.917h8.166v8.166h-8.166V4.917z M11.32,27.23h-7v-2.334c0-1.285,1.15-2.332,2.565-2.332h1.868
	c1.415,0,2.565,1.047,2.565,2.332v2.334H11.32z M12.485,16.613H3.152V9.945C4.392,8.8,6.488,7.28,7.817,7.28
	c1.332,0,3.427,1.52,4.667,2.665L12.485,16.613L12.485,16.613z"/>
</svg>
